flaticon/real-estate/house-key-1.svg

<svg xmlns="http://www.w3.org/2000/svg" width="32" height="32" viewBox="0 0 24 24">
    <path d="M23.769531 14.71875C23.046875 13.761719 22.328125 13.761719 20.566406 14.679688L17.128906 16.800781C16.648438 17.078125 15.566406 17.160156 14.566406 17.160156 14.769531 16.800781 14.6875 16.359375 14.328125 15.839844 13.6875 14.921875 12.609375 14.359375 11.449219 14.359375L9.886719 14.359375C9.046875 14.359375 8.25 14.121094 7.609375 13.640625 6.164062 12.558594 3.90625 13.734375 2.808594 14.4375L2.808594 13.601562.0078125 13.601562.0078125 24 2.808594 24 2.808594 22.800781 8.007812 22.800781C8.808594 22.800781 9.648438 22.71875 10.449219 22.640625L15.648438 21.839844C15.847656 21.839844 16.046875 21.800781 16.207031 21.761719 16.6875 21.679688 17.128906 21.441406 17.527344 21.078125L23.566406 16.320312C24.046875 15.921875 24.128906 15.199219 23.769531 14.71875zM2.007812 23.199219L.808594 23.199219.808594 14.398438 2.007812 14.398438zM23.089844 15.800781L17.007812 20.519531 16.96875 20.558594C16.6875 20.800781 16.40625 20.960938 16.089844 21L16.046875 21C15.886719 21.039062 15.769531 21.039062 15.609375 21.039062L10.328125 21.839844C9.566406 21.960938 8.769531 22 8.007812 22L2.808594 22 2.808594 15.398438C3.769531 14.71875 6.007812 13.441406 7.128906 14.320312 7.886719 14.878906 8.847656 15.199219 9.886719 15.199219L11.449219 15.199219C12.367188 15.199219 13.207031 15.601562 13.726562 16.398438 13.886719 16.640625 13.929688 16.878906 13.886719 16.960938 13.769531 17.160156 13.289062 17.238281 12.769531 17.28125 12.65625 17.28125 12.546875 17.28125 12.449219 17.28125 12.40625 17.28125 12.363281 17.28125 12.328125 17.28125L8.566406 17.28125C7.328125 17.28125 6.566406 17.878906 6.566406 18.878906 6.566406 19.121094 6.726562 19.28125 6.96875 19.28125 7.207031 19.28125 7.367188 19.121094 7.367188 18.878906 7.367188 18.679688 7.367188 18.078125 8.566406 18.078125L12.289062 18.078125C12.335938 18.078125 12.386719 18.078125 12.449219 18.078125 12.542969 18.078125 12.660156 18.078125 12.808594 18.078125 12.847656 18.078125 12.929688 18.078125 13.007812 18.078125 14.886719 18.121094 16.648438 18.078125 17.566406 17.601562L21.007812 15.480469C22.6875 14.640625 22.847656 14.839844 23.167969 15.320312 23.25 15.441406 23.25 15.679688 23.089844 15.800781zM18.007812 4.800781C18.886719 4.800781 19.609375 4.078125 19.609375 3.199219 19.609375 2.320312 18.886719 1.601562 18.007812 1.601562 17.128906 1.601562 16.40625 2.320312 16.40625 3.199219 16.40625 4.078125 17.128906 4.800781 18.007812 4.800781zM18.007812 2.398438C18.449219 2.398438 18.808594 2.761719 18.808594 3.199219 18.808594 3.640625 18.449219 4 18.007812 4 17.566406 4 17.207031 3.640625 17.207031 3.199219 17.207031 2.761719 17.566406 2.398438 18.007812 2.398438zM18.007812 2.398438"/>
    <path d="M 8.40625 12.441406 C 8.449219 12.640625 8.609375 12.761719 8.808594 12.761719 L 10.808594 12.761719 C 11.046875 12.761719 11.207031 12.601562 11.25 12.441406 L 11.25 11.238281 L 12.847656 11.238281 C 13.089844 11.238281 13.25 11.078125 13.25 10.839844 L 13.25 9.640625 L 14.449219 9.640625 C 14.6875 9.640625 14.847656 9.480469 14.847656 9.238281 L 14.847656 8.039062 L 16.046875 8.039062 C 16.167969 8.039062 16.289062 7.960938 16.367188 7.878906 C 16.367188 7.878906 16.699219 7.488281 16.996094 7.148438 C 17.195312 7.183594 17.398438 7.199219 17.609375 7.199219 C 19.609375 7.199219 21.207031 5.601562 21.207031 3.601562 C 21.207031 1.601562 19.609375 0 17.609375 0 C 15.609375 0 14.007812 1.601562 14.007812 3.601562 C 14.007812 3.835938 14.03125 4.066406 14.074219 4.289062 L 8.128906 10.078125 C 8.007812 10.160156 7.96875 10.320312 8.007812 10.441406 Z M 17.609375 0.800781 C 19.167969 0.800781 20.40625 2.039062 20.40625 3.601562 C 20.40625 5.160156 19.167969 6.398438 17.609375 6.398438 C 17.363281 6.398438 17.125 6.367188 16.898438 6.3125 C 15.914062 6.023438 15.164062 5.269531 14.929688 4.320312 C 14.917969 4.285156 14.898438 4.253906 14.875 4.21875 C 14.832031 4.019531 14.808594 3.8125 14.808594 3.601562 C 14.808594 2.039062 16.046875 0.800781 17.609375 0.800781 Z M 14.328125 5.121094 C 14.410156 5.292969 14.507812 5.460938 14.617188 5.617188 C 14.621094 5.617188 14.621094 5.621094 14.621094 5.621094 C 14.632812 5.636719 14.644531 5.65625 14.65625 5.671875 C 15.015625 6.179688 15.5 6.59375 16.070312 6.859375 C 15.960938 6.972656 15.882812 7.085938 15.808594 7.160156 L 14.40625 7.160156 C 14.167969 7.160156 14.007812 7.320312 14.007812 7.558594 L 14.007812 8.761719 L 12.808594 8.761719 C 12.566406 8.761719 12.40625 8.921875 12.40625 9.160156 L 12.40625 10.359375 L 10.808594 10.359375 C 10.566406 10.359375 10.40625 10.519531 10.40625 10.761719 L 10.40625 11.960938 L 9.128906 11.960938 L 8.847656 10.519531 Z M 14.328125 5.121094"/>
</svg>

<svg xmlns="http://www.w3.org/2000/svg" width="32" height="32" viewBox="0 0 24 24">
    <path d="M23.77 14.719c-.723-.957-1.442-.957-3.204-.04l-3.437 2.122c-.48.277-1.563.36-2.563.36.204-.36.121-.802-.238-1.321a3.512 3.512 0 0 0-2.879-1.48H9.887c-.84 0-1.637-.239-2.278-.72-1.445-1.081-3.703.094-4.8.797v-.835H.008V24h2.8v-1.2h5.2c.8 0 1.64-.081 2.441-.16l5.2-.8c.199 0 .398-.04.558-.078.48-.082.922-.32 1.32-.684l6.04-4.758c.48-.398.562-1.12.203-1.601zm-21.762 8.48h-1.2v-8.8h1.2zm21.082-7.398l-6.082 4.719-.04.039c-.28.242-.562.402-.878.441h-.043c-.16.04-.277.04-.438.04l-5.28.8c-.763.12-1.56.16-2.321.16h-5.2v-6.602c.962-.68 3.2-1.957 4.32-1.078.759.559 1.72.88 2.759.88h1.562c.918 0 1.758.402 2.278 1.198.16.243.203.48.16.563-.117.2-.598.277-1.117.32H8.566c-1.238 0-2 .598-2 1.598 0 .242.16.402.403.402.238 0 .398-.16.398-.402 0-.2 0-.8 1.2-.8h4.441c1.879.042 3.64 0 4.558-.477l3.442-2.122c1.68-.84 1.84-.64 2.16-.16.082.121.082.36-.078.48zm0 0M18.008 4.8c.879 0 1.601-.722 1.601-1.6 0-.88-.722-1.598-1.601-1.598-.88 0-1.602.718-1.602 1.597 0 .88.723 1.602 1.602 1.602zm0-2.402a.802.802 0 1 1-.8.8c-.001-.436.358-.8.8-.8zm0 0"/>
    <path d="M8.406 12.441c.043.2.203.32.403.32h2a.45.45 0 0 0 .441-.32v-1.203h1.598c.242 0 .402-.16.402-.398v-1.2h1.2c.238 0 .398-.16.398-.402V8.04h1.199c.121 0 .242-.078.32-.16 0 0 .332-.39.63-.73.198.035.401.05.612.05 2 0 3.598-1.597 3.598-3.597S19.609 0 17.609 0c-2 0-3.601 1.602-3.601 3.602 0 .234.023.464.066.687L8.13 10.08a.328.328 0 0 0-.121.362zM17.61.801a2.78 2.78 0 0 1 2.797 2.8 2.78 2.78 0 0 1-2.797 2.797c-.246 0-.484-.03-.71-.085-.985-.29-1.735-1.043-1.97-1.993a.431.431 0 0 0-.054-.101 2.929 2.929 0 0 1-.066-.617c0-1.563 1.238-2.801 2.8-2.801zm-3.28 4.32a3.495 3.495 0 0 0 .292.5l.035.05A3.6 3.6 0 0 0 16.07 6.86c-.11.114-.187.227-.261.301h-1.403c-.238 0-.398.16-.398.399v1.203h-1.2c-.242 0-.402.16-.402.398v1.2H10.81c-.243 0-.403.16-.403.402v1.199H9.13l-.281-1.441zm0 0"/>
</svg>
